X: 3646
T: Bill Sullivan's
R: polka
M: 2/4
K: Amajor
|:a2 a>f|ec a>f|ec a>f|ec BA|
a2 a>f|ec a>e|ce B>c|1 BA ce:|2 BA A>B||
|:ce ec|df fB|ce eA/B/|cB B>B|
ce ec|df f>e|ce B>c|1 BA A>B:|2 BA ce||

